!!!ONB: MCCC : IJH0404_04 : Extracted Monophonic Melody
!!!COM: Haydn, Joseph
!!!OPR: String Quartet in B minor
!!!OMV: 4
!!!SCT: Hob.III:68 ; Op.64 No.2
!!!ODT: 1790///
**kern
*thru
*>A
*clefG2
*k[f#c#]
*D:
*M2/4
8f#
8f#
4r
=1
8.b
16cc#
8dd
8dd
=2
8dd
8r
8ff#
8ff#
=3
8.cc#
16dd
8cc#
8cc#
=4
8cc#
8r
16aa
16gg
16aa
16gg
=5
16ff#
16ee
16dd
16cc#
16b
16a#
16cc#
16ee
=6
8dd
8b
16aa
16gg
16aa
16gg
=7
16ff#
16ee
16dd
16cc#
16b
16a#
16cc#
16ee
=8
8dd
8b
8B
8B
=9
8c
16e
16r
8d#
16f#
16r
=10
8e
16g
16r
16f#
16g#
16a#
16f#
=11
8b
8dd
8cc#
8ff#
=12
8b
8r
8f#
8f#
=13
8.b
16cc#
8dd
8dd
=14
8dd
8r
8d
8d
=15
8c
8B
8c
8A#
=16
8B
8G
8d#
8d#
=17
16e
16f#
16g
16f#
16a
16g
16b
16a
=18
16cc
16b
16ee
16dd#
16ff#
16ee
16gg
16ff#
=19
16aa
16gg
16bb
16aa
16gg
16ff#
16ee
16dd
=20
8cc#
8r
8aa
8aa
=21
8.ddd
32ccc#
32bb
8aa
8aa
=22
8aa
8r
8eee
8eee
=23
8ccc#
8ccc#
8gg
8gg
=24
8ff#
8dd
8aa
8aa
=25
8.ddd
32ccc#
32bb
8aa
8aa
=26
8aa
8r
16ddd#
16eee
16ddd#
16eee
=27
16bb#
16ccc#
16bb#
16ccc#
16ff#
16gg
16ff#
16gg
=28
8ff#
8dd
16d
16e
16f#
16d
=29
16e
16f#
16g
16e
16f#
16g
16a
16f#
=30
16g
16a
16b
16g
8d
8dd
=31
8r
8ee
8r
8ff#
=32
8r
16ff#
16gg
8bb
8bb
=33
2bb[
=34
8bb]
16ff#
16gg
8bb
8bb
=35
2bb[
=36
8bb]
16ff#
16gg
8bb
8bb
=37
8bb
16aa
16ccc#
8eee
8eee
=38
8eee
16ccc#
16eee
8ggg
8ggg
=39
4.ggg
8eee
=40
8fff#
16ddd
16fff#
8aaa
8aaa
=41
4.aaa
8aa
=42
8bb
16gg
16bb
8ddd
16bb
16ddd
=43
8ggg
8ggg
8fff#
8eee
=44
16fff#
16ddd
16ggg
16eee
8aaa
8aaa
=45
2eee
=46
8ddd
8r
8A
8A
=47
8.B
16c#
8d
8d
=48
4A
8a
8a
=49
8.a
16g
8f#
8e
=50
8g
8f#
8A
8A
=51
8.B
16c#
8d
8d
=52
4A
16c#
16d
16f#
16d
=53
8B
8B
16c#
16d
16f#
16d
=54
8A
8A
16c#
16d
16f#
16d
=55
16G
16g
16b
16a
16g
16f#
16e
16d
=56
16c#
16e
16ee
16dd
16cc#
16b
16a
16g
=57
16f#
16aa
16gg
16ff#
16ee
16dd
16cc#
16b
=58
16a
16g
16f#
16e
16d
16c#
16B
16A
=59
8G
8G
8A
8A
=60
8d
8r
8f#
8f#
=61
4r
8a
8a
=62
4r
8dd
8dd
=63
4r
8ff#
8ff#
=64
4r
=65
*>A
8f#
8f#
4r
=66
8.b
16cc#
8dd
8dd
=67
8dd
8r
8ff#
8ff#
=68
8.cc#
16dd
8cc#
8cc#
=69
8cc#
8r
16aa
16gg
16aa
16gg
=70
16ff#
16ee
16dd
16cc#
16b
16a#
16cc#
16ee
=71
8dd
8b
16aa
16gg
16aa
16gg
=72
16ff#
16ee
16dd
16cc#
16b
16a#
16cc#
16ee
=73
8dd
8b
8B
8B
=74
8c
16e
16r
8d#
16f#
16r
=75
8e
16g
16r
16f#
16g#
16a#
16f#
=76
8b
8dd
8cc#
8ff#
=77
8b
8r
8f#
8f#
=78
8.b
16cc#
8dd
8dd
=79
8dd
8r
8d
8d
=80
8c
8B
8c
8A#
=81
8B
8G
8d#
8d#
=82
16e
16f#
16g
16f#
16a
16g
16b
16a
=83
16cc
16b
16ee
16dd#
16ff#
16ee
16gg
16ff#
=84
16aa
16gg
16bb
16aa
16gg
16ff#
16ee
16dd
=85
8cc#
8r
8aa
8aa
=86
8.ddd
32ccc#
32bb
8aa
8aa
=87
8aa
8r
8eee
8eee
=88
8ccc#
8ccc#
8gg
8gg
=89
8ff#
8dd
8aa
8aa
=90
8.ddd
32ccc#
32bb
8aa
8aa
=91
8aa
8r
16ddd#
16eee
16ddd#
16eee
=92
16bb#
16ccc#
16bb#
16ccc#
16ff#
16gg
16ff#
16gg
=93
8ff#
8dd
16d
16e
16f#
16d
=94
16e
16f#
16g
16e
16f#
16g
16a
16f#
=95
16g
16a
16b
16g
8d
8dd
=96
8r
8ee
8r
8ff#
=97
8r
16ff#
16gg
8bb
8bb
=98
2bb[
=99
8bb]
16ff#
16gg
8bb
8bb
=100
2bb[
=101
8bb]
16ff#
16gg
8bb
8bb
=102
8bb
16aa
16ccc#
8eee
8eee
=103
8eee
16ccc#
16eee
8ggg
8ggg
=104
4.ggg
8eee
=105
8fff#
16ddd
16fff#
8aaa
8aaa
=106
4.aaa
8aa
=107
8bb
16gg
16bb
8ddd
16bb
16ddd
=108
8ggg
8ggg
8fff#
8eee
=109
16fff#
16ddd
16ggg
16eee
8aaa
8aaa
=110
2eee
=111
8ddd
8r
8A
8A
=112
8.B
16c#
8d
8d
=113
4A
8a
8a
=114
8.a
16g
8f#
8e
=115
8g
8f#
8A
8A
=116
8.B
16c#
8d
8d
=117
4A
16c#
16d
16f#
16d
=118
8B
8B
16c#
16d
16f#
16d
=119
8A
8A
16c#
16d
16f#
16d
=120
16G
16g
16b
16a
16g
16f#
16e
16d
=121
16c#
16e
16ee
16dd
16cc#
16b
16a
16g
=122
16f#
16aa
16gg
16ff#
16ee
16dd
16cc#
16b
=123
16a
16g
16f#
16e
16d
16c#
16B
16A
=124
8G
8G
8A
8A
=125
8d
8r
8f#
8f#
=126
4r
8a
8a
=127
4r
8dd
8dd
=128
4r
8ff#
8ff#
=129
4r
=130
*>B
8aa
8aa
4r
=131
8.aa
16bb
8ccc
8ccc
=132
8bb
8r
8g
8g
=133
8.d
16e
16d
16c
16B
16A
=134
8G
8r
8ff#
8ff#
=135
8.ff#
16gg
8aa
8aa
=136
8gg
8r
8ee
8ee
=137
8.b
16cc
16b
16a
16g
16f#
=138
8e
8r
8gg
8gg
=139
8gg
8a#
8ff#
8ff#
=140
8ff#
8b
8aa
8aa
=141
8aa
8b#
8gg#
8gg#
=142
8gg#
8cc#
4r
=143
2r
=144
4r
8c#
8c#
=145
8.f#
16g#
8a
8a
=146
8a
8r
8cc#
8cc#
=147
8.g#
16a
8g#
8g#
=148
8g#
8r
8cc#
8cc#
=149
8.f##
16g#
8f##
8f##
=150
8f##
8r
8ee
8ee
=151
8ee
8f##
8ee
8ee
=152
8ee
8f##
4r
=153
2r
=154
4r
8d#
8d#
=155
8.g#
16a#
8b
8b
=156
8b
8r
8B
8B
=157
8.f#
16g#
8a
8a
=158
8a
8r
4r
=159
2r
=160
4r
8b
8b
=161
8.ee
16ff#
8gg
8gg
=162
8gg
8r
8G
8G
=163
8.d
16e
8f
8f
=164
8f
8r
8gg
8gg
=165
8b
8r
8gg
8gg
=166
8cc
8r
8gg
8gg
=167
8gg#
8r
8gg#
8gg#
=168
8aa
8r
8aa
8aa
=169
8cc#
8r
8aa
8aa
=170
8dd
8r
8aa
8aa
=171
4aa#
8aa#
8aa#
=172
8bb
8r
8bb
8bb
=173
8bb
8r
8bb
8bb
=174
8B
8r
8bb
8bb
=175
8d#
8r
8bb
8bb
=176
8B
8r
8bb
8bb
=177
8.bb
16ccc#
8ddd
8ddd
=178
4ddd
8ee#
8ee#
=179
8.ff#
16aa
8ccc#
8ccc#
=180
8ccc#
8r
8ccc#
8ccc#
=181
8.bb#
16ddd#
8fff#
8fff#
=182
8fff#
8r
8bb#
8bb#
=183
8.ccc#
16ddd#
8eee
8eee
=184
8eee
8r
8gg#
8gg#
=185
16ff#
16gg#
16aa
16ff#
16dd#
16ee
16ff#
16dd#
=186
16ee
16ff#
16gg#
16ee
16cc#
16dd#
16ee
16cc#
=187
16b#
16cc#
16dd#
16b#
16f#
16g#
16a
16f#
=188
16e
16f#
16g#
16e
16c#
16d#
16e
16c#
=189
16B#
16c#
16d#
16B#
8G#
8G#
=190
4G#
4r
=191
2A[
=192
4A]
8e
8e
=193
8.f#
16g
8a
8a
=194
8a
8r
8f#
8f#
=195
8.e
16f#
8g
8g
=196
8g
8r
4r
=197
2r
=198
4r
8f#
8f#
=199
8.b
16cc#
8dd
8dd
=200
8dd
8r
8ff#
8ff#
=201
8.cc#
16dd
8cc#
8cc#
=202
8cc#
8r
16aa
16gg
16aa
16gg
=203
16ff#
16ee
16dd
16cc#
16b
16a#
16cc#
16ee
=204
8dd
8b
16aa
16gg
16aa
16gg
=205
16ff#
16ee
16dd
16cc#
16b
16a#
16cc#
16ee
=206
8dd
8b
4r
=207
2r
=208
2r
=209
2r
=210
4r
16cc#
16dd
16ee
16cc#
=211
8dd
8r
16dd#
16ee
16ff#
16dd#
=212
16ee
16ff#
16gg
16ee
16ff#
16gg
16aa
16ff#
=213
16gg
16aa
16bb
16gg
16aa#
16bb
16ccc#
16aa#
=214
16bb
16ccc#
16ddd
16bb
8ff#
8ff#
=215
16bb
16ccc#
16ddd
16bb
8ff#
8ff#
=216
16gg
16aa
16bb
16gg
16ee
16ff#
16gg
16ee
=217
16cc#
16dd
16ee
16cc#
16a#
16b
16cc#
16a#
=218
16b
16cc#
16dd
16b
8e#
8e#
=219
16b
16cc#
16dd
16b
8e#
8e#
=220
4r
8f#
8f#
=221
4r
8f#
8f#
=222
4r
8f#
8f#
=223
4r
8f#
8f#
=224
*>C
*k[f#c#g#d#a#]
*B:
8.b
16cc#
8dd#
8dd#
=225
8dd#
8r
8ff#
8ff#
=226
8.cc#
16dd#
8cc#
8cc#
=227
8cc#
8r
16ff##
16gg#
16ff##
16gg#
=228
16ff#
16ee
16dd#
16cc#
16b
16a#
16cc#
16ee
=229
8dd#
8b
16ff##
16gg#
16ff##
16gg#
=230
16ff#
16ee
16dd#
16cc#
16b
16a#
16cc#
16ee
=231
8dd#
8b
8d#
16B
16r
=232
8e
16c#
16r
8f#
16d#
16r
=233
8g#
16e
16r
16ee
16dd#
16cc#
16b
=234
8a#
8a#
16gg#
16ff#
16ee
16dd#
=235
8cc#
8cc#
16aa#
16ccc#
16eee
16ccc#
=236
8aa#
8aa#
8ee
8ee
=237
8dd#
8dd#
8gg#
8gg#
=238
8ff#
8ff#
8a#
8a#
=239
8b
8r
8f#
8f#
=240
8.g#
16a#
8b
8b
=241
8f#
8r
8ff#
8ff#
=242
8.ff#
16ee
8dd#
8cc#
=243
8dd#
8b
8f#
8f#
=244
8.g#
16a#
8b
8b
=245
8f#
8r
16a#
16b
16dd#
16b
=246
8g#
8g#
16a#
16b
16dd#
16b
=247
8f#
8f#
16a#
16b
16dd#
16b
=248
8e
8e
16a#
16b
16dd#
16b
=249
8d#
8f#
8b
8dd#
=250
8ff#
8bb
8ddd#
8bb
=251
16ff##
16gg#
16ff##
16gg#
16aa#
16bb
16aa#
16bb
=252
16ff##
16gg#
16ff##
16gg#
16dd#
16ee
16b#
16cc#
=253
2f#
=254
2cc#
=255
16b
16ff#
16gg#
16ff#
16ee
16dd#
16cc#
16b
=256
16a#
16cc#
16ee
16gg#
16ff#
16ee
16dd#
16cc#
=257
16b
16ff#
16gg#
16ff#
16ee
16dd#
16cc#
16b
=258
16a#
16cc#
16ee
16gg#
16ff#
16ee
16dd#
16cc#
=259
8b
8r
8dd#
8dd#
=260
4r
8ff#
8ff#
=261
4r
8bb
8bb
=262
4r
8ddd#
8ddd#
=263
4r
8fff#
8fff#
=264
4r
8bbb
8bbb
=265
4bbb
4r
=266
2r
=267
4r
=268
*>C
8.b
16cc#
8dd#
8dd#
=269
8dd#
8r
8ff#
8ff#
=270
8.cc#
16dd#
8cc#
8cc#
=271
8cc#
8r
16ff##
16gg#
16ff##
16gg#
=272
16ff#
16ee
16dd#
16cc#
16b
16a#
16cc#
16ee
=273
8dd#
8b
16ff##
16gg#
16ff##
16gg#
=274
16ff#
16ee
16dd#
16cc#
16b
16a#
16cc#
16ee
=275
8dd#
8b
8d#
16B
16r
=276
8e
16c#
16r
8f#
16d#
16r
=277
8g#
16e
16r
16ee
16dd#
16cc#
16b
=278
8a#
8a#
16gg#
16ff#
16ee
16dd#
=279
8cc#
8cc#
16aa#
16ccc#
16eee
16ccc#
=280
8aa#
8aa#
8ee
8ee
=281
8dd#
8dd#
8gg#
8gg#
=282
8ff#
8ff#
8a#
8a#
=283
8b
8r
8f#
8f#
=284
8.g#
16a#
8b
8b
=285
8f#
8r
8ff#
8ff#
=286
8.ff#
16ee
8dd#
8cc#
=287
8dd#
8b
8f#
8f#
=288
8.g#
16a#
8b
8b
=289
8f#
8r
16a#
16b
16dd#
16b
=290
8g#
8g#
16a#
16b
16dd#
16b
=291
8f#
8f#
16a#
16b
16dd#
16b
=292
8e
8e
16a#
16b
16dd#
16b
=293
8d#
8f#
8b
8dd#
=294
8ff#
8bb
8ddd#
8bb
=295
16ff##
16gg#
16ff##
16gg#
16aa#
16bb
16aa#
16bb
=296
16ff##
16gg#
16ff##
16gg#
16dd#
16ee
16b#
16cc#
=297
2f#
=298
2cc#
=299
16b
16ff#
16gg#
16ff#
16ee
16dd#
16cc#
16b
=300
16a#
16cc#
16ee
16gg#
16ff#
16ee
16dd#
16cc#
=301
16b
16ff#
16gg#
16ff#
16ee
16dd#
16cc#
16b
=302
16a#
16cc#
16ee
16gg#
16ff#
16ee
16dd#
16cc#
=303
8b
8r
8dd#
8dd#
=304
4r
8ff#
8ff#
=305
4r
8bb
8bb
=306
4r
8ddd#
8ddd#
=307
4r
8fff#
8fff#
=308
4r
8bbb
8bbb
=309
4bbb
4r
=310
2r
=311
4r
==
*-
